X:1
T:Care amorose
T:Gemignano Capi Lupi da Modona
T:Source : Canzonette a tre vovcidi H.Vecchi et di G.Capi Lupi da Modona---Venetia---Ang.Gardano---1597. Editor : André Vierendeels (11/02/17).
T:Notes : Original clefs : C1, C2, C4 Lute accompaniment not included in this edition Editorial accidentals above the staff
T:Care amorose
T:©
T:©
C:Gemignano Capi Lupi da Modona
Z:©
%%score [ 1 2 3 ]
L:1/8
Q:1/4=103
M:2/2
K:C
V:1 treble nm="Soprano 1" snm="S 1"
V:2 treble nm="Soprano 2" snm="S 2"
V:3 treble-8 nm="Tenor" snm="T"
V:1
"^1)" z2 A2 A2 _B2 | A2 A2 A2 F2- | F2 G2 E4 |[M:2/4] E4 ::[M:2/2] A2 AA A2 B2 | c4 c4 | z2 G2 c4 | %7
w: Ca- re'a- mo-|ro- se, gra- di-|* te ro-|se,|se Pri- ma- ve- ra|se- te,|per- che,|
w: Ca- re vi-|o- le al, mon-|* do so-|le,|se pri- ma- ve- ra|se- te,|pe- che,|
 z2 F2 A4- | A8 | G4 A4 | F4 E4- | E4 !fermata!D4 |] %12
w: per- che,|_|ver- no|por- ge-|* te.|
w: per- che,|_|ver- no|por- ge-|* te.|
V:2
"^2)""^1)" z2 ^F2 F2 G2 |"^-natural" F2 F2 E2 D2- | D2 D2 ^C4 |[M:2/4] ^C4 ::[M:2/2] ^F2 FF F2 G2 | %5
w: Ca- re'a- mo-|ro- se, gra- di-|* te ro-|se,|se Pri- ma- ve- ra|
w: Ca- ri gra-|di- te, ci- gli|_ fio- ri-|ti,|se Pri- ma- ve- ra|
 A4 A2 A2 | E4 z2 A2 | F8 | E4 F4 | D4 ^C4 | D8 |"^#" C4 !fermata!D4 |] %12
w: se- te, per-|che, per-|che,|ver- no|por- ge-||* te.|
w: se- te, per-|che, per-|che,|ver- no|por- ge-||* te.|
V:3
"^3)""^1)""^4)" z2 d2 d2 G2 | d2 d2 c2 _B2- | B2 G2 A4 |[M:2/4] A4 ::[M:2/2] D2 DD D2 G2 | %5
w: Ca- re'a- mo-|ro- se, gra- di-|* te ro-|se,|se Pri- ma- ve- ra|
w: Deh vi can-|gia- te, in u-|* na'Es- ta-|te,|ac- cio che do- po|
 F4 F2 F2 | c4 z2 A2 | d8 | ^c4 d4 | _B4 A4- | A8- | A4 !fermata!D4 |] %12
w: se- te, per-|che, per-|che,|ver- no|por- ge-||* te.|
w: vo- i, spe-|ri, spe-|ri|l'Au- tum-|no po-||* i.|

